public/images/sponsors/Xero.svg

<svg fill="none" height="86" viewBox="0 0 172 86" width="172" xmlns="http://www.w3.org/2000/svg"><g clip-rule="evenodd" fill-rule="evenodd"><path d="m86.4987 8.00046c-19.6077 0-35.4987 15.89464-35.4987 35.49974 0 19.6035 15.891 35.4998 35.4987 35.4998 19.6023 0 35.5013-15.8963 35.5013-35.4998 0-19.6051-15.899-35.49974-35.5013-35.49974z" fill="#43bfee"/><path d="m106.222 48.9459c-3.081 0-5.587-2.5269-5.587-5.6326 0-3.1093 2.506-5.6391 5.587-5.6391 3.077 0 5.58 2.5298 5.58 5.6391 0 3.1057-2.503 5.6326-5.58 5.6326zm0-13.6718c-4.395 0-7.9695 3.6064-7.9695 8.0392 0 4.4316 3.5745 8.0372 7.9695 8.0372 4.392 0 7.965-3.6056 7.965-8.0372 0-4.4328-3.573-8.0392-7.965-8.0392zm-31.7716 14.1617c.2178.2221.338.5133.338.8208 0 .6437-.5202 1.1674-1.1592 1.1674-.3105 0-.6072-.1304-.8356-.3672l-5.9552-6.002-5.9811 6.0302c-.2235.2171-.5128.336-.8155.336-.6359 0-1.1531-.5225-1.1531-1.1644 0-.3181.1266-.6153.3565-.8368l5.9585-6.0242-5.9675-6.0166c-.2241-.225-.3475-.5208-.3475-.8325 0-.6421.5172-1.1646 1.1531-1.1646.3074 0 .5967.1195.815.3364l5.9874 6.0174 5.9637-6.0062c.2201-.2241.5119-.3476.8213-.3476.639 0 1.1592.5225 1.1592 1.1646 0 .3111-.1204.6013-.3384.8173l-5.9633 6.0366zm23.1924-11.6494c-.052 0-.2567.0014-.4473.0244-2.2994.2869-2.5279 1.4063-2.5279 4.0841v8.2652c0 .6406-.5166 1.1616-1.1512 1.1616-.6308 0-1.1471-.5208-1.1513-1.1611l-.0038-13.4393c.004-.6493.5105-1.1577 1.1532-1.1577.4986 0 .9407.3309 1.0919.8016.7895-.5814 1.7268-.8879 2.7181-.8879l.3266.0048c.6388 0 1.1599.5232 1.1599 1.1664 0 .6348-.4913 1.1132-1.1682 1.1379zm10.6092 5.5269c0 1.1295-.911 2.0482-2.03 2.0482-1.122 0-2.035-.9187-2.035-2.0482 0-1.129.913-2.0477 2.035-2.0477 1.119 0 2.03.9187 2.03 2.0477zm-31.2303-1.3015c.6372-2.5218 2.8828-4.2819 5.463-4.2819 2.5937 0 4.8287 1.7557 5.4686 4.2819zm12.9174 1.5327c.3659-.4549.5034-1.05.3866-1.6773-.4756-2.273-1.6991-4.0939-3.5379-5.2655-1.2631-.8104-2.737-1.2385-4.2626-1.2385-1.6834 0-3.2861.5112-4.635 1.4786-2.1083 1.5131-3.3668 3.9846-3.3668 6.612 0 .6595.0808 1.3142.24 1.9458.8102 3.1992 3.5353 5.6189 6.7811 6.021.3139.0378.6282.0572.9339.0572.6503 0 1.2829-.0836 1.9331-.2543.8454-.2052 1.6507-.5507 2.3945-1.0266.7028-.4596 1.3498-1.0786 2.0304-1.9422l.0446-.0467c.2266-.2853.332-.6522.2889-1.0063-.0386-.3169-.1888-.5906-.4228-.7701-.2219-.1725-.4861-.2676-.7439-.2676-.2514 0-.6206.0919-.9545.5311l-.0262.0351c-.1102.1485-.2244.3019-.3556.4542-.4498.5099-.9667.9299-1.5354 1.2482-.8144.4381-1.6941.6635-2.6128.6703-2.8863-.0319-4.6538-1.9706-5.3443-3.7711-.1086-.3241-.1861-.62-.2358-.8944-.0009-.0279-.0028-.057-.0046-.0856l11.1745-.0021c.776-.0166 1.4264-.3026 1.8306-.8052z" fill="#fff"/></g></svg>

<svg width="172" height="86" viewBox="0 0 172 86" fill="none" xmlns="http://www.w3.org/2000/svg">
<path fill-rule="evenodd" clip-rule="evenodd" d="M86.4987 8.00046C66.891 8.00046 51 23.8951 51 43.5002C51 63.1037 66.891 79 86.4987 79C106.101 79 122 63.1037 122 43.5002C122 23.8951 106.101 8.00046 86.4987 8.00046Z" fill="#43BFEE"/>
<path fill-rule="evenodd" clip-rule="evenodd" d="M106.222 48.9459C103.141 48.9459 100.635 46.419 100.635 43.3133C100.635 40.204 103.141 37.6742 106.222 37.6742C109.299 37.6742 111.802 40.204 111.802 43.3133C111.802 46.419 109.299 48.9459 106.222 48.9459ZM106.222 35.2741C101.827 35.2741 98.2525 38.8805 98.2525 43.3133C98.2525 47.7449 101.827 51.3505 106.222 51.3505C110.614 51.3505 114.187 47.7449 114.187 43.3133C114.187 38.8805 110.614 35.2741 106.222 35.2741ZM74.4504 49.4358C74.6682 49.6579 74.7884 49.9491 74.7884 50.2566C74.7884 50.9003 74.2682 51.424 73.6292 51.424C73.3187 51.424 73.022 51.2936 72.7936 51.0568L66.8384 45.0548L60.8573 51.085C60.6338 51.3021 60.3445 51.421 60.0418 51.421C59.4059 51.421 58.8887 50.8985 58.8887 50.2566C58.8887 49.9385 59.0153 49.6413 59.2452 49.4198L65.2037 43.3956L59.2362 37.379C59.0121 37.154 58.8887 36.8582 58.8887 36.5465C58.8887 35.9044 59.4059 35.3819 60.0418 35.3819C60.3492 35.3819 60.6385 35.5014 60.8568 35.7183L66.8442 41.7357L72.8079 35.7295C73.028 35.5054 73.3198 35.3819 73.6292 35.3819C74.2682 35.3819 74.7884 35.9044 74.7884 36.5465C74.7884 36.8576 74.668 37.1478 74.45 37.3638L68.4867 43.4004L74.4504 49.4358ZM97.6428 37.7864C97.5908 37.7864 97.3861 37.7878 97.1955 37.8108C94.8961 38.0977 94.6676 39.2171 94.6676 41.8949V50.1601C94.6676 50.8007 94.151 51.3217 93.5164 51.3217C92.8856 51.3217 92.3693 50.8009 92.3651 50.1606L92.3613 36.7213C92.3653 36.072 92.8718 35.5636 93.5145 35.5636C94.0131 35.5636 94.4552 35.8945 94.6064 36.3652C95.3959 35.7838 96.3332 35.4773 97.3245 35.4773L97.6511 35.4821C98.2899 35.4821 98.811 36.0053 98.811 36.6485C98.811 37.2833 98.3197 37.7617 97.6428 37.7864ZM108.252 43.3133C108.252 44.4428 107.341 45.3615 106.222 45.3615C105.1 45.3615 104.187 44.4428 104.187 43.3133C104.187 42.1843 105.1 41.2656 106.222 41.2656C107.341 41.2656 108.252 42.1843 108.252 43.3133ZM77.0217 42.0118C77.6589 39.49 79.9045 37.7299 82.4847 37.7299C85.0784 37.7299 87.3134 39.4856 87.9533 42.0118H77.0217ZM89.9391 43.5445C90.305 43.0896 90.4425 42.4945 90.3257 41.8672C89.8501 39.5942 88.6266 37.7733 86.7878 36.6017C85.5247 35.7913 84.0508 35.3632 82.5252 35.3632C80.8418 35.3632 79.2391 35.8744 77.8902 36.8418C75.7819 38.3549 74.5234 40.8264 74.5234 43.4538C74.5234 44.1133 74.6042 44.768 74.7634 45.3996C75.5736 48.5988 78.2987 51.0185 81.5445 51.4206C81.8584 51.4584 82.1727 51.4778 82.4784 51.4778C83.1287 51.4778 83.7613 51.3942 84.4115 51.2235C85.2569 51.0183 86.0622 50.6728 86.806 50.1969C87.5088 49.7373 88.1558 49.1183 88.8364 48.2547L88.881 48.208C89.1076 47.9227 89.213 47.5558 89.1699 47.2017C89.1313 46.8848 88.9811 46.6111 88.7471 46.4316C88.5252 46.2591 88.261 46.164 88.0032 46.164C87.7518 46.164 87.3826 46.2559 87.0487 46.6951L87.0225 46.7302C86.9123 46.8787 86.7981 47.0321 86.6669 47.1844C86.2171 47.6943 85.7002 48.1143 85.1315 48.4326C84.3171 48.8707 83.4374 49.0961 82.5187 49.1029C79.6324 49.071 77.8649 47.1323 77.1744 45.3318C77.0658 45.0077 76.9883 44.7118 76.9386 44.4374C76.9377 44.4095 76.9358 44.3804 76.934 44.3518L88.1085 44.3497C88.8845 44.3331 89.5349 44.0471 89.9391 43.5445Z" fill="white"/>
</svg>
